muebles/img/brochure.svg

<svg width="41" height="39" viewBox="0 0 41 39" fill="none" xmlns="http://www.w3.org/2000/svg">
<path d="M39.9814 6.14734L27.1689 0.66297C27.0017 0.591673 26.8102 0.591673 26.6436 0.66297L14.0938 6.03461L1.54391 0.66297C1.34659 0.578876 1.11597 0.595329 0.933391 0.706845C0.750813 0.819579 0.640625 1.01214 0.640625 1.21872V32.2968C0.640625 32.5369 0.788609 32.7539 1.01859 32.8526L13.8311 38.337C13.9983 38.4083 14.1898 38.4083 14.3564 38.337L26.9062 32.9653L39.4561 38.337C39.54 38.3729 39.6291 38.3906 39.7188 38.3906C39.8405 38.3906 39.9615 38.3577 40.0666 38.2931C40.2492 38.1804 40.3594 37.9878 40.3594 37.7812V6.70309C40.3594 6.463 40.2114 6.24606 39.9814 6.14734ZM14.7344 7.09736L26.2656 2.16142V31.9032L14.7344 36.8391V7.09736ZM1.92188 2.16081L13.4531 7.09675V36.8385L1.92188 31.9026V2.16081ZM39.0781 36.8391L27.5469 31.9032V2.16142L39.0781 7.09736V36.8391Z" fill="black"/>
<path d="M11.7779 7.96883L4.09039 4.92195C3.8918 4.84334 3.6663 4.86345 3.48884 4.97741C3.31011 5.09075 3.20312 5.28088 3.20312 5.48441V13.4063C3.20312 13.6525 3.3588 13.8743 3.59711 13.9687L11.2846 17.0156C11.364 17.0473 11.448 17.0625 11.5312 17.0625C11.6555 17.0625 11.7798 17.0278 11.8868 16.9602C12.0649 16.8468 12.1719 16.6567 12.1719 16.4532V8.53128C12.1719 8.28509 12.0162 8.06328 11.7779 7.96883ZM10.8906 15.5391L4.48438 12.9998V6.39847L10.8906 8.93774V15.5391Z" fill="black"/>
<path d="M3.59903 17.0217L4.09231 15.8968L11.7792 18.9467L11.2859 20.0716L3.59903 17.0217Z" fill="black"/>
<path d="M3.59839 20.0698L4.09167 18.9449L11.7785 21.9948L11.2853 23.1197L3.59839 20.0698Z" fill="black"/>
<path d="M3.59839 23.1179L4.09167 21.993L11.7785 25.0429L11.2853 26.1678L3.59839 23.1179Z" fill="black"/>
<path d="M3.59839 26.166L4.09167 25.041L11.7785 28.091L11.2853 29.2159L3.59839 26.166Z" fill="black"/>
<path d="M24.6993 22.0398C24.5218 21.9259 24.2957 21.9058 24.0978 21.9844L16.4102 25.0313C16.1713 25.1257 16.0156 25.3475 16.0156 25.5937V33.5156C16.0156 33.7191 16.1226 33.9093 16.3007 34.0226C16.4077 34.0902 16.5313 34.125 16.6562 34.125C16.7395 34.125 16.8235 34.1097 16.9029 34.0781L24.5904 31.0312C24.8287 30.9367 24.9844 30.7149 24.9844 30.4687V22.5468C24.9844 22.3433 24.8774 22.1532 24.6993 22.0398ZM23.7031 30.0623L17.2969 32.6015V26.0002L23.7031 23.4609V30.0623Z" fill="black"/>
<path d="M16.4141 21.9825L24.1009 18.9326L24.5942 20.0575L16.9074 23.1075L16.4141 21.9825Z" fill="black"/>
<path d="M16.4135 18.9357L24.1003 15.8858L24.5936 17.0107L16.9067 20.0606L16.4135 18.9357Z" fill="black"/>
<path d="M16.4128 15.8889L24.0997 12.8389L24.5929 13.9638L16.9061 17.0138L16.4128 15.8889Z" fill="black"/>
<path d="M16.4122 12.842L24.099 9.79206L24.5923 10.917L16.9055 13.9669L16.4122 12.842Z" fill="black"/>
<path d="M29.2221 13.9687L36.9096 17.0156C36.989 17.0473 37.073 17.0625 37.1562 17.0625C37.2805 17.0625 37.4048 17.0278 37.5118 16.9602C37.6899 16.8468 37.7969 16.6567 37.7969 16.4532V8.53128C37.7969 8.28509 37.6412 8.06328 37.4029 7.96883L29.7154 4.92195C29.5174 4.84334 29.2919 4.86345 29.1138 4.97741C28.9351 5.09075 28.8281 5.28088 28.8281 5.48441V13.4063C28.8281 13.6525 28.9838 13.8743 29.2221 13.9687ZM30.1094 6.39847L36.5156 8.93774V15.5391L30.1094 12.9998V6.39847Z" fill="black"/>
<path d="M29.2337 17.0235L29.727 15.8986L37.4138 18.9485L36.9205 20.0734L29.2337 17.0235Z" fill="black"/>
<path d="M29.2337 20.0716L29.727 18.9467L37.4138 21.9966L36.9205 23.1215L29.2337 20.0716Z" fill="black"/>
<path d="M29.233 23.1196L29.7263 21.9947L37.4131 25.0446L36.9198 26.1696L29.233 23.1196Z" fill="black"/>
<path d="M29.233 26.1678L29.7263 25.0429L37.4131 28.0928L36.9198 29.2177L29.233 26.1678Z" fill="black"/>
</svg>

<svg width="41" height="39" fill="none" xmlns="http://www.w3.org/2000/svg"><path d="M39.981 6.147L27.17.663a.672.672 0 00-.525 0l-12.55 5.372L1.544.663a.673.673 0 00-.61.044.604.604 0 00-.293.512v31.078c0 .24.148.457.378.556l12.812 5.484a.672.672 0 00.525 0l12.55-5.372 12.55 5.372a.666.666 0 00.61-.044.604.604 0 00.293-.512V6.703a.609.609 0 00-.378-.556zm-25.247.95l11.532-4.936v29.742L14.734 36.84V7.097zM1.922 2.161l11.531 4.936v29.742L1.922 31.903V2.16zm37.156 34.678l-11.531-4.936V2.161l11.531 4.936V36.84z" fill="#000"/><path d="M11.778 7.969L4.09 4.922a.664.664 0 00-.601.055.602.602 0 00-.286.507v7.922a.61.61 0 00.394.563l7.688 3.047a.665.665 0 00.602-.056.603.603 0 00.285-.507V8.531a.61.61 0 00-.394-.562zm-.887 7.57L4.484 13V6.4l6.407 2.539v6.601zm-7.292 1.483l.493-1.125 7.687 3.05-.493 1.125-7.687-3.05zm-.001 3.048l.494-1.125 7.686 3.05-.493 1.125-7.687-3.05zm0 3.048l.494-1.125 7.686 3.05-.493 1.125-7.687-3.05zm0 3.048l.494-1.125 7.686 3.05-.493 1.125-7.687-3.05zM24.7 22.04a.665.665 0 00-.602-.056l-7.688 3.047a.61.61 0 00-.394.563v7.922c0 .203.107.393.285.507a.666.666 0 00.602.055l7.687-3.047a.61.61 0 00.394-.562v-7.922a.603.603 0 00-.285-.507zm-.997 8.022l-6.406 2.54V26l6.406-2.54v6.602zm-7.289-8.079l7.687-3.05.493 1.125-7.687 3.05-.493-1.125zm-.001-3.047l7.687-3.05.494 1.125-7.687 3.05-.494-1.125zm0-3.047l7.687-3.05.493 1.125-7.687 3.05-.493-1.125zm-.001-3.047l7.687-3.05.493 1.125-7.686 3.05-.494-1.125zm12.81 1.127l7.688 3.047a.665.665 0 00.602-.056.603.603 0 00.285-.507V8.531a.61.61 0 00-.394-.562l-7.688-3.047a.665.665 0 00-.601.055.602.602 0 00-.286.507v7.922a.61.61 0 00.394.563zm.887-7.57l6.407 2.539v6.601L30.109 13V6.4zm-.875 10.624l.493-1.124 7.687 3.05-.494 1.124-7.686-3.05zm0 3.049l.493-1.125 7.687 3.05-.494 1.125-7.686-3.05zm-.001 3.048l.493-1.125 7.687 3.05-.493 1.125-7.687-3.05zm0 3.048l.493-1.125 7.687 3.05-.493 1.125-7.687-3.05z" fill="#000"/></svg>
